images/ranger.svg

<?xml version="1.0" encoding="utf-8"?>
<!-- Generator: Adobe Illustrator 14.0.0, SVG Export Plug-In . SVG Version: 6.00 Build 43363)  -->
<!DOCTYPE svg PUBLIC "-//W3C//DTD SVG 1.0//EN" "http://www.w3.org/TR/2001/REC-SVG-20010904/DTD/svg10.dtd">
<svg version="1.0" id="Layer_1" xmlns="http://www.w3.org/2000/svg" xmlns:xlink="http://www.w3.org/1999/xlink" x="0px" y="0px"
	 width="94.439px" height="100px" viewBox="0 0 94.439 100" enable-background="new 0 0 94.439 100" xml:space="preserve" style="background:khaki">
<path d="M67.807,70.474"/>
<path d="M90.031,25.653c-2.772-1.852-4.852-0.92-4.852-0.92c-2.636,0.667-4.14,0.659-4.875,0.571v-0.644
	c0.713-0.491,1.183-1.316,1.183-2.258c0-1.493-1.219-2.712-2.712-2.712c-1.506,0-2.725,1.219-2.725,2.712
	c0,0.845,0.386,1.588,0.98,2.089v23.581l-9.345-7.137L47.875,56.23v28.475h39.838V56.23l-7.408-5.657V35.02
	c0.686,0.103,2.212,0.152,4.994-0.56c0,0,2.08-0.944,4.852,0.932c0,0,0.586,0.454,4.289,2.892v-9.714
	C90.736,26.144,90.031,25.653,90.031,25.653z"/>
<polygon points="15.23,61.548 33.775,61.548 33.273,100 27.634,100 25.674,71.788 23.5,71.788 21.826,100 15.686,100 "/>
<path d="M37.6,10.252c-5.855-0.933-12.917-1.004-12.917-1.004h-0.012c0,0-7.073,0.071-12.929,1.004c0,0-0.048,1.338,0.598,1.959
	l5.424-0.215c-0.19,0.657-0.299,1.362-0.299,2.079c0,4.026,3.227,7.289,7.206,7.289l0,0c3.991,0,7.217-3.263,7.217-7.289
	c0-0.717-0.107-1.422-0.299-2.079l5.437,0.215C37.646,11.59,37.6,10.252,37.6,10.252z"/>
<polygon points="28.423,0 20.895,0 16.558,3.99 16.558,7.516 32.771,7.516 32.771,3.99 "/>
<path d="M48.233,38.559L36.129,25.463c-1.685-2.067-3.07-2.067-3.07-2.067H15.924c0,0-1.386,0-3.07,2.067L0.749,38.559
	c0,0-1.792,1.386,0.167,3.656L15.23,56.278v2.558h18.521v-2.558l14.314-14.063C50.025,39.944,48.233,38.559,48.233,38.559z
	 M10.762,45.394c0,0-2.139-3.932-2.545-4.577l-0.514-0.932l7.241-6.715c0,0,0.167-0.228,0.335,0.299l0.179,15.987
	C15.458,49.456,13.666,49.217,10.762,45.394z M40.766,40.816c-0.406,0.646-2.545,4.577-2.545,4.577
	c-2.904,3.823-4.696,4.062-4.696,4.062l0.179-15.987c0.168-0.526,0.335-0.299,0.335-0.299l7.241,6.715L40.766,40.816z"/>
</svg>

<?xml version="1.0" encoding="UTF-8" standalone="no"?>
<!-- Generator: Adobe Illustrator 14.0.0, SVG Export Plug-In . SVG Version: 6.00 Build 43363)  -->

<svg
   xmlns:dc="http://purl.org/dc/elements/1.1/"
   xmlns:cc="http://creativecommons.org/ns#"
   xmlns:rdf="http://www.w3.org/1999/02/22-rdf-syntax-ns#"
   xmlns:svg="http://www.w3.org/2000/svg"
   xmlns="http://www.w3.org/2000/svg"
   xmlns:sodipodi="http://sodipodi.sourceforge.net/DTD/sodipodi-0.dtd"
   xmlns:inkscape="http://www.inkscape.org/namespaces/inkscape"
   version="1.0"
   id="Layer_1"
   x="0px"
   y="0px"
   width="101"
   height="101"
   viewBox="0 0 101 101"
   enable-background="new 0 0 94.439 100"
   xml:space="preserve"
   inkscape:version="0.48.2 r9819"
   sodipodi:docname="ranger.svg"><metadata
   id="metadata19"><rdf:RDF><cc:Work
       rdf:about=""><dc:format>image/svg+xml</dc:format><dc:type
         rdf:resource="http://purl.org/dc/dcmitype/StillImage" /></cc:Work></rdf:RDF></metadata><defs
   id="defs17" /><sodipodi:namedview
   pagecolor="#ffffff"
   bordercolor="#666666"
   borderopacity="1"
   objecttolerance="10"
   gridtolerance="10"
   guidetolerance="10"
   inkscape:pageopacity="0"
   inkscape:pageshadow="2"
   inkscape:window-width="1077"
   inkscape:window-height="722"
   id="namedview15"
   showgrid="false"
   inkscape:zoom="1"
   inkscape:cx="-28.780499"
   inkscape:cy="50"
   inkscape:window-x="93"
   inkscape:window-y="20"
   inkscape:window-maximized="0"
   inkscape:current-layer="Layer_1" />
<path
   sodipodi:type="arc"
   style="fill:#f7c088;stroke:#000000;stroke-width:6;stroke-miterlimit:4;stroke-opacity:1;stroke-dasharray:none;fill-opacity:1"
   id="path3003"
   sodipodi:cx="49.576271"
   sodipodi:cy="47.669491"
   sodipodi:rx="46.610168"
   sodipodi:ry="44.279659"
   d="m 96.18644,47.669491 a 46.610168,44.279659 0 1 1 -93.2203374,0 46.610168,44.279659 0 1 1 93.2203374,0 z"
   transform="matrix(1.0062771,0,0,1.0592391,0.61253373,0.00661145)" /><path
   d="M 67.807,71.474"
   id="path3"
   inkscape:connector-curvature="0" />




<g
   id="g2996"
   transform="matrix(0.63532283,0,0,0.63532283,20.500112,18.733858)"><path
     id="path5"
     d="m 90.031,25.653 c -2.772,-1.852 -4.852,-0.92 -4.852,-0.92 -2.636,0.667 -4.14,0.659 -4.875,0.571 V 24.66 c 0.713,-0.491 1.183,-1.316 1.183,-2.258 0,-1.493 -1.219,-2.712 -2.712,-2.712 -1.506,0 -2.725,1.219 -2.725,2.712 0,0.845 0.386,1.588 0.98,2.089 V 48.072 L 67.685,40.935 47.875,56.23 V 84.705 H 87.713 V 56.23 L 80.305,50.573 V 35.02 c 0.686,0.103 2.212,0.152 4.994,-0.56 0,0 2.08,-0.944 4.852,0.932 0,0 0.586,0.454 4.289,2.892 V 28.57 c -3.704,-2.426 -4.409,-2.917 -4.409,-2.917 z"
     inkscape:connector-curvature="0" /><polygon
     id="polygon7"
     points="25.674,71.788 23.5,71.788 21.826,100 15.686,100 15.23,61.548 33.775,61.548 33.273,100 27.634,100 " /><path
     id="path9"
     d="M 37.6,10.252 C 31.745,9.319 24.683,9.248 24.683,9.248 h -0.012 c 0,0 -7.073,0.071 -12.929,1.004 0,0 -0.048,1.338 0.598,1.959 l 5.424,-0.215 c -0.19,0.657 -0.299,1.362 -0.299,2.079 0,4.026 3.227,7.289 7.206,7.289 l 0,0 c 3.991,0 7.217,-3.263 7.217,-7.289 0,-0.717 -0.107,-1.422 -0.299,-2.079 l 5.437,0.215 C 37.646,11.59 37.6,10.252 37.6,10.252 z"
     inkscape:connector-curvature="0" /><polygon
     id="polygon11"
     points="28.423,0 20.895,0 16.558,3.99 16.558,7.516 32.771,7.516 32.771,3.99 " /><path
     id="path13"
     d="M 48.233,38.559 36.129,25.463 c -1.685,-2.067 -3.07,-2.067 -3.07,-2.067 H 15.924 c 0,0 -1.386,0 -3.07,2.067 L 0.749,38.559 c 0,0 -1.792,1.386 0.167,3.656 L 15.23,56.278 v 2.558 H 33.751 V 56.278 L 48.065,42.215 c 1.96,-2.271 0.168,-3.656 0.168,-3.656 z m -37.471,6.835 c 0,0 -2.139,-3.932 -2.545,-4.577 L 7.703,39.885 14.944,33.17 c 0,0 0.167,-0.228 0.335,0.299 l 0.179,15.987 c 0,0 -1.792,-0.239 -4.696,-4.062 z m 30.004,-4.578 c -0.406,0.646 -2.545,4.577 -2.545,4.577 -2.904,3.823 -4.696,4.062 -4.696,4.062 l 0.179,-15.987 c 0.168,-0.526 0.335,-0.299 0.335,-0.299 l 7.241,6.715 -0.514,0.932 z"
     inkscape:connector-curvature="0" /></g>
</svg>
